resources/assets/icons/grid-menu.svg

<svg xmlns="http://www.w3.org/2000/svg" viewBox="0 0 20 20"><g fill="none" stroke="currentColor" stroke-width="2" stroke-linecap="round" stroke-linejoin="round"><path d="M8 9.3C8 8.6 8.6 8 9.3 8h1.4c.7 0 1.3.6 1.3 1.3v1.4c0 .7-.6 1.3-1.3 1.3H9.3c-.7 0-1.3-.6-1.3-1.3V9.3zM1 9.3C1 8.6 1.6 8 2.3 8h1.4C4.4 8 5 8.6 5 9.3v1.4c0 .7-.6 1.3-1.3 1.3H2.3c-.7 0-1.3-.6-1.3-1.3V9.3zM15 9.3c0-.7.6-1.3 1.3-1.3h1.4c.7 0 1.3.6 1.3 1.3v1.4c0 .7-.6 1.3-1.3 1.3h-1.4c-.7 0-1.3-.6-1.3-1.3V9.3zM8 2.3C8 1.6 8.6 1 9.3 1h1.4c.7 0 1.3.6 1.3 1.3v1.4c0 .7-.6 1.3-1.3 1.3H9.3C8.6 5 8 4.4 8 3.7V2.3zM1 2.3C1 1.6 1.6 1 2.3 1h1.4C4.4 1 5 1.6 5 2.3v1.4C5 4.4 4.4 5 3.7 5H2.3C1.6 5 1 4.4 1 3.7V2.3zM15 2.3c0-.7.6-1.3 1.3-1.3h1.4c.7 0 1.3.6 1.3 1.3v1.4c0 .7-.6 1.3-1.3 1.3h-1.4c-.7 0-1.3-.6-1.3-1.3V2.3zM8 16.3c0-.7.6-1.3 1.3-1.3h1.4c.7 0 1.3.6 1.3 1.3v1.4c0 .7-.6 1.3-1.3 1.3H9.3c-.7 0-1.3-.6-1.3-1.3v-1.4zM1 16.3c0-.7.6-1.3 1.3-1.3h1.4c.7 0 1.3.6 1.3 1.3v1.4c0 .7-.6 1.3-1.3 1.3H2.3c-.7 0-1.3-.6-1.3-1.3v-1.4zM15 16.3c0-.7.6-1.3 1.3-1.3h1.4c.7 0 1.3.6 1.3 1.3v1.4c0 .7-.6 1.3-1.3 1.3h-1.4c-.7 0-1.3-.6-1.3-1.3v-1.4z"/></g></svg>

<?xml version="1.0" encoding="utf-8"?>
<svg version="1.1" id="grid-menu" xmlns="http://www.w3.org/2000/svg" xmlns:xlink="http://www.w3.org/1999/xlink" x="0px" y="0px"
	 viewBox="0 0 20 20" enable-background="new 0 0 20 20" xml:space="preserve">
<g>
	<path fill="none" stroke="currentColor" stroke-width="2" stroke-linecap="round" stroke-linejoin="round" d="M8,9.3C8,8.6,8.6,8,9.3,8
		h1.4C11.4,8,12,8.6,12,9.3v1.4c0,0.7-0.6,1.3-1.3,1.3H9.3C8.6,12,8,11.4,8,10.7V9.3z"/>
	<path fill="none" stroke="currentColor" stroke-width="2" stroke-linecap="round" stroke-linejoin="round" d="M1,9.3C1,8.6,1.6,8,2.3,8
		h1.4C4.4,8,5,8.6,5,9.3v1.4C5,11.4,4.4,12,3.7,12H2.3C1.6,12,1,11.4,1,10.7V9.3z"/>
	<path fill="none" stroke="currentColor" stroke-width="2" stroke-linecap="round" stroke-linejoin="round" d="M15,9.3
		C15,8.6,15.6,8,16.3,8h1.4C18.4,8,19,8.6,19,9.3v1.4c0,0.7-0.6,1.3-1.3,1.3h-1.4c-0.7,0-1.3-0.6-1.3-1.3C15,10.7,15,9.3,15,9.3z"/>
	<path fill="none" stroke="currentColor" stroke-width="2" stroke-linecap="round" stroke-linejoin="round" d="M8,2.3C8,1.6,8.6,1,9.3,1
		h1.4C11.4,1,12,1.6,12,2.3v1.4C12,4.4,11.4,5,10.7,5H9.3C8.6,5,8,4.4,8,3.7V2.3z"/>
	<path fill="none" stroke="currentColor" stroke-width="2" stroke-linecap="round" stroke-linejoin="round" d="M1,2.3C1,1.6,1.6,1,2.3,1
		h1.4C4.4,1,5,1.6,5,2.3v1.4C5,4.4,4.4,5,3.7,5H2.3C1.6,5,1,4.4,1,3.7V2.3z"/>
	<path fill="none" stroke="currentColor" stroke-width="2" stroke-linecap="round" stroke-linejoin="round" d="M15,2.3
		C15,1.6,15.6,1,16.3,1h1.4C18.4,1,19,1.6,19,2.3v1.4C19,4.4,18.4,5,17.7,5h-1.4C15.6,5,15,4.4,15,3.7V2.3z"/>
	<path fill="none" stroke="currentColor" stroke-width="2" stroke-linecap="round" stroke-linejoin="round" d="M8,16.3
		C8,15.6,8.6,15,9.3,15h1.4c0.7,0,1.3,0.6,1.3,1.3v1.4c0,0.7-0.6,1.3-1.3,1.3H9.3C8.6,19,8,18.4,8,17.7V16.3z"/>
	<path fill="none" stroke="currentColor" stroke-width="2" stroke-linecap="round" stroke-linejoin="round" d="M1,16.3
		C1,15.6,1.6,15,2.3,15h1.4C4.4,15,5,15.6,5,16.3v1.4C5,18.4,4.4,19,3.7,19H2.3C1.6,19,1,18.4,1,17.7V16.3z"/>
	<path fill="none" stroke="currentColor" stroke-width="2" stroke-linecap="round" stroke-linejoin="round" d="M15,16.3
		c0-0.7,0.6-1.3,1.3-1.3h1.4c0.7,0,1.3,0.6,1.3,1.3v1.4c0,0.7-0.6,1.3-1.3,1.3h-1.4c-0.7,0-1.3-0.6-1.3-1.3C15,17.7,15,16.3,15,16.3
		z"/>
</g>
</svg>
